svg/editor/pen_2_line.svg

<?xml version="1.0" encoding="UTF-8"?>
<svg width="24px" height="24px" viewBox="0 0 24 24" version="1.1" xmlns="http://www.w3.org/2000/svg" xmlns:xlink="http://www.w3.org/1999/xlink">
    <title>pen_2_line</title>
    <g id="页面-1" stroke="none" stroke-width="1" fill="none" fill-rule="evenodd">
        <g id="Editor" transform="translate(-576.000000, -96.000000)">
            <g id="pen_2_line" transform="translate(576.000000, 96.000000)">
                 <path d="M24,0 L24,24 L0,24 L0,0 L24,0 Z M12.5934901,23.257841 L12.5819402,23.2595131 L12.5108777,23.2950439 L12.4918791,23.2987469 L12.4918791,23.2987469 L12.4767152,23.2950439 L12.4056548,23.2595131 C12.3958229,23.2563662 12.3870493,23.2590235 12.3821421,23.2649074 L12.3780323,23.275831 L12.360941,23.7031097 L12.3658947,23.7234994 L12.3769048,23.7357139 L12.4804777,23.8096931 L12.4953491,23.8136134 L12.4953491,23.8136134 L12.5071152,23.8096931 L12.6106902,23.7357139 L12.6232938,23.7196733 L12.6232938,23.7196733 L12.6266527,23.7031097 L12.609561,23.275831 C12.6075724,23.2657013 12.6010112,23.2592993 12.5934901,23.257841 L12.5934901,23.257841 Z M12.8583906,23.1452862 L12.8445485,23.1473072 L12.6598443,23.2396597 L12.6498822,23.2499052 L12.6498822,23.2499052 L12.6471943,23.2611114 L12.6650943,23.6906389 L12.6699349,23.7034178 L12.6699349,23.7034178 L12.678386,23.7104931 L12.8793402,23.8032389 C12.8914285,23.8068999 12.9022333,23.8029875 12.9078286,23.7952264 L12.9118235,23.7811639 L12.8776777,23.1665331 C12.8752882,23.1545897 12.8674102,23.1470016 12.8583906,23.1452862 L12.8583906,23.1452862 Z M12.1430473,23.1473072 C12.1332178,23.1423925 12.1221763,23.1452606 12.1156365,23.1525954 L12.1099173,23.1665331 L12.0757714,23.7811639 C12.0751323,23.7926639 12.0828099,23.8018602 12.0926481,23.8045676 L12.108256,23.8032389 L12.3092106,23.7104931 L12.3186497,23.7024347 L12.3186497,23.7024347 L12.3225043,23.6906389 L12.340401,23.2611114 L12.337245,23.2485176 L12.337245,23.2485176 L12.3277531,23.2396597 L12.1430473,23.1473072 Z" id="MingCute" fill-rule="nonzero"></path>
                <path d="M16.2425,3.51467 C17.4141,2.34309 19.3136,2.34309 20.4851,3.51467 C21.609836,4.6393772 21.6548254,6.43493547 20.6200683,7.61331961 L20.4851,7.75731 L19.7781,8.46436 L20.4853,9.17152 C21.2251947,9.91146211 21.2641366,11.0869464 20.6021255,11.8726925 L20.4853,11.9999 L16.2426,16.2426 C15.8521,16.6331 15.2189,16.6331 14.8284,16.2426 C14.4679385,15.8821385 14.4402107,15.3148793 14.7452166,14.9226027 L14.8284,14.8284 L19.071,10.5857 L18.3639,9.87857 L8.48574,19.7567 C8.362892,19.87958 8.2131512,19.9711 8.0491384,20.024604 L7.92365,20.0575 L4.43252,20.7558 C3.76504333,20.88925 3.17219824,20.3408741 3.22745448,19.6841925 L3.24405,19.5673 L3.94228,16.0762 C3.976352,15.9058 4.0501552,15.746536 4.15693632,15.6110544 L4.2431,15.5141 L16.2425,3.51467 Z M6.34307,16.2425 L5.85,16.7356 L5.49645,18.5034 L7.26421,18.1498 L7.75729,17.6567 L6.34307,16.2425 Z M15.5355,7.05014 L7.75729,14.8283 L9.1715,16.2425 L16.9497,8.46436 L15.5355,7.05014 Z M19.0709,4.92888 C18.7104385,4.5684 18.1431793,4.54067077 17.7509027,4.84569231 L17.6567,4.92888 L16.9497,5.63593 L18.3639,7.05014 L19.0709,6.34309 L19.1541047,6.2488835 C19.4591888,5.85659503 19.4314538,5.28936 19.0709,4.92888 Z" id="形状" fill="#09244B"></path>
            </g>
        </g>
    </g>
</svg>

<svg xmlns="http://www.w3.org/2000/svg" width="24" height="24"><g fill="none" fill-rule="evenodd"><path d="M24 0v24H0V0h24ZM12.593 23.258l-.011.002-.071.035-.02.004-.014-.004-.071-.035c-.01-.004-.019-.001-.024.005l-.004.01-.017.428.005.02.01.013.104.074.015.004.012-.004.104-.074.012-.016.004-.017-.017-.427c-.002-.01-.009-.017-.017-.018Zm.265-.113-.013.002-.185.093-.01.01-.003.011.018.43.005.012.008.007.201.093c.012.004.023 0 .029-.008l.004-.014-.034-.614c-.003-.012-.01-.02-.02-.022Zm-.715.002a.023.023 0 0 0-.027.006l-.006.014-.034.614c0 .012.007.02.017.024l.015-.002.201-.093.01-.008.004-.011.017-.43-.003-.012-.01-.01-.184-.092Z"/><path fill="#09244B" d="M16.243 3.515a3 3 0 0 1 4.377 4.098l-.135.144-.707.707.707.708a2 2 0 0 1 .117 2.7l-.117.128-4.242 4.243a1 1 0 0 1-1.498-1.32l.083-.095 4.243-4.242-.707-.707-9.878 9.878a1.1 1.1 0 0 1-.437.268l-.125.033-3.491.698a1.01 1.01 0 0 1-1.206-1.072l.017-.117.698-3.49a1.1 1.1 0 0 1 .215-.466l.086-.097 12-12Zm-9.9 12.728-.493.493-.354 1.767 1.768-.353.493-.493-1.414-1.415Zm9.193-9.193-7.779 7.778 1.415 1.415 7.778-7.779-1.414-1.414ZM19.07 4.93a1 1 0 0 0-1.32-.083l-.094.083-.707.707 1.414 1.414.707-.707.083-.094a1 1 0 0 0-.083-1.32Z"/></g></svg>
